assets/images/png/assistance-icon.svg

<svg fill="none" height="44" viewBox="0 0 44 44" width="44" xmlns="http://www.w3.org/2000/svg"><g fill="#f36633"><path d="m17.0178 18.0354c0-3.5264.0517-7.0496-.0141-10.5776-.0689-3.69245 2.7149-5.58646 5.5128-5.51596 4.7484.11749 9.503.02976 14.256.03133 3.1943 0 5.2653 2.08826 5.2669 5.30447v14.41266c0 3.2052-2.057 5.2856-5.2842 5.2997-4.1248.0188-8.2512-.0094-12.376.0251-.4802.0181-.9452.1724-1.341.4449-1.2627.8789-2.4752 1.8282-3.705 2.7541-.4888.3681-.9822.741-1.6339.412s-.6815-.929-.6815-1.5494c.0021-3.6783.0021-7.3588 0-11.0413zm2.3499 9.2069c1.0026-.752 1.8501-1.3552 2.6632-2.0069.5075-.4109 1.1475-.6226 1.8-.5953 4.1781.0188 8.3562.0094 12.5327.0079 2.4078 0 3.3321-.9149 3.3321-3.2899v-13.79377c0-2.30759-.9258-3.24441-3.2068-3.24441h-13.786c-2.4047 0-3.329.91176-3.3305 3.28984v18.64244z"/><path d="m13.2786 32.0032c1.8627 1.211 3.1238 2.8794 3.4355 5.0883.1864 1.3316.1426 2.7086.0783 4.0606-.0329.6987-.636.9399-1.3159.9399-2.5849-.0078-5.1697 0-7.75461 0-1.46163 0-2.92482 0-4.38645 0-.96502 0-1.43656-.4261-1.3927-1.3707.0705-1.5306.047-3.0956.38068-4.5761.40105-1.7859 1.61986-3.1222 3.23501-4.1545-1.66841-1.4648-2.5316-3.2711-2.34988-5.4674.115-1.5559.83618-3.0045 2.00837-4.034 1.16017-1.0573 2.67777-1.6359 4.24735-1.6193 1.56963.0165 3.07463.627 4.21223 1.7086 2.6491 2.5473 2.5159 5.8481-.3979 9.4246zm1.1608 7.6982c.2663-2.2856-.224-4.2517-2.2198-5.5551-1.8251-1.1922-3.75985-1.211-5.58963-.0361-2.02716 1.2972-2.5598 3.2805-2.30758 5.5912zm-1.2094-12.5546c.0117-.5078-.0778-1.0128-.2632-1.4857-.1855-.4728-.4631-.904-.8168-1.2685s-.7764-.655-1.2435-.8545c-.467-.1996-.96913-.3042-1.47702-.3078-1.01278.0003-1.98569.3947-2.71286 1.0996-.72716.7049-1.15152 1.6652-1.18326 2.6774.00034 1.0264.40019 2.0122 1.11487 2.7489.71467.7366 1.68803 1.166 2.71388 1.1974 2.07259.0188 3.84439-1.7217 3.86789-3.8068z"/><path d="m28.3812 15.7253c0-1.4491.1175-1.5932 1.5196-1.8423.4637-.0926.8797-.3459 1.1746-.7154.295-.3695.4499-.8313.4374-1.3039-.0361-.4866-.2458-.944-.5908-1.2891-.3451-.345-.8025-.5547-1.2891-.59085-.4725-.01622-.9354.13655-1.3055.43085s-.6232.7108-.7138 1.1749c-.03.2583-.0797.5139-.1488.7645-.2131.6141-.694.8366-1.2987.7332s-.8867-.4857-.9274-1.0857c-.1645-2.47833 2.3357-4.73892 4.8078-4.34101 2.0992.33839 3.5107 1.78592 3.7959 3.88831.2365 1.7467-.8554 3.5436-2.6382 4.3864-.2146.1059-.3846.2847-.4794.5045-.3039.8412-.6893 1.1702-1.3911 1.0496-.7723-.1316-.9822-.6784-.9572-1.3786.0094-.1254.0047-.2554.0047-.3854z"/><path d="m30.716 20.1205c-.0013.3013-.1185.5906-.3273.8079-.2089.2173-.4933.3459-.7944.3592-.1552.0157-.312-.002-.4598-.0517-.1479-.0498-.2834-.1305-.3976-.2368s-.2044-.2358-.2645-.3797c-.0602-.144-.0889-.2991-.0843-.4551-.0107-.1494.0093-.2994.0588-.4408.0495-.1413.1274-.2711.229-.3812s.2246-.1982.3616-.2589c.1369-.0607.2849-.0927.4346-.094.3146-.0136.6219.0976.8549.3094.2329.2119.3728.5072.389.8217z"/></g></svg>

<svg width="44" height="44" viewBox="0 0 44 44" fill="none" xmlns="http://www.w3.org/2000/svg">
<path d="M17.0178 18.0354C17.0178 14.509 17.0695 10.9858 17.0037 7.4578C16.9348 3.76535 19.7186 1.87134 22.5165 1.94184C27.2649 2.05933 32.0195 1.9716 36.7725 1.97317C39.9668 1.97317 42.0378 4.06143 42.0394 7.27764C42.0394 12.0818 42.0394 16.8861 42.0394 21.6903C42.0394 24.8955 39.9824 26.9759 36.7552 26.99C32.6304 27.0088 28.504 26.9806 24.3792 27.0151C23.899 27.0332 23.434 27.1875 23.0382 27.46C21.7755 28.3389 20.563 29.2882 19.3332 30.2141C18.8444 30.5822 18.351 30.9551 17.6993 30.6261C17.0476 30.2971 17.0178 29.6971 17.0178 29.0767C17.0199 25.3984 17.0199 21.7179 17.0178 18.0354ZM19.3677 27.2423C20.3703 26.4903 21.2178 25.8871 22.0309 25.2354C22.5384 24.8245 23.1784 24.6128 23.8309 24.6401C28.009 24.6589 32.1871 24.6495 36.3636 24.648C38.7714 24.648 39.6957 23.7331 39.6957 21.3581V7.56433C39.6957 5.25674 38.7699 4.31992 36.4889 4.31992H22.7029C20.2982 4.31992 19.3739 5.23168 19.3724 7.60976C19.3724 13.826 19.3724 20.0401 19.3724 26.2522L19.3677 27.2423Z" fill="#F36633"/>
<path d="M13.2786 32.0032C15.1413 33.2142 16.4024 34.8826 16.7141 37.0915C16.9005 38.4231 16.8567 39.8001 16.7924 41.1521C16.7595 41.8508 16.1564 42.092 15.4765 42.092C12.8916 42.0842 10.3068 42.092 7.72189 42.092C6.26026 42.092 4.79707 42.092 3.33544 42.092C2.37042 42.092 1.89888 41.6659 1.94274 40.7213C2.01324 39.1907 1.98974 37.6257 2.32342 36.1452C2.72447 34.3593 3.94328 33.023 5.55843 31.9907C3.89002 30.5259 3.02683 28.7196 3.20855 26.5233C3.32355 24.9674 4.04473 23.5188 5.21692 22.4893C6.37709 21.432 7.89469 20.8534 9.46427 20.87C11.0339 20.8865 12.5389 21.497 13.6765 22.5786C16.3256 25.1259 16.1924 28.4267 13.2786 32.0032ZM14.4394 39.7014C14.7057 37.4158 14.2154 35.4497 12.2196 34.1463C10.3945 32.9541 8.45975 32.9353 6.62997 34.1102C4.60281 35.4074 4.07017 37.3907 4.32239 39.7014H14.4394ZM13.23 27.1468C13.2417 26.639 13.1522 26.134 12.9668 25.6611C12.7813 25.1883 12.5037 24.7571 12.15 24.3926C11.7963 24.0281 11.3736 23.7376 10.9065 23.5381C10.4395 23.3385 9.93737 23.2339 9.42948 23.2303C8.4167 23.2306 7.44379 23.625 6.71662 24.3299C5.98946 25.0348 5.5651 25.9951 5.53336 27.0073C5.5337 28.0337 5.93355 29.0195 6.64823 29.7562C7.3629 30.4928 8.33626 30.9222 9.36211 30.9536C11.4347 30.9724 13.2065 29.2319 13.23 27.1468Z" fill="#F36633"/>
<path d="M28.3812 15.7253C28.3812 14.2762 28.4987 14.1321 29.9008 13.883C30.3645 13.7904 30.7805 13.5371 31.0754 13.1676C31.3704 12.7981 31.5253 12.3363 31.5128 11.8637C31.4767 11.3771 31.267 10.9197 30.922 10.5746C30.5769 10.2296 30.1195 10.0199 29.6329 9.98375C29.1604 9.96753 28.6975 10.1203 28.3274 10.4146C27.9573 10.7089 27.7042 11.1254 27.6136 11.5895C27.5836 11.8478 27.5339 12.1034 27.4648 12.354C27.2517 12.9681 26.7708 13.1906 26.1661 13.0872C25.5614 12.9838 25.2794 12.6015 25.2387 12.0015C25.0742 9.52317 27.5744 7.26258 30.0465 7.66049C32.1457 7.99888 33.5572 9.44641 33.8424 11.5488C34.0789 13.2955 32.987 15.0924 31.2042 15.9352C30.9896 16.0411 30.8196 16.2199 30.7248 16.4397C30.4209 17.2809 30.0355 17.6099 29.3337 17.4893C28.5614 17.3577 28.3515 16.8109 28.3765 16.1107C28.3859 15.9853 28.3812 15.8553 28.3812 15.7253Z" fill="#F36633"/>
<path d="M30.716 20.1205C30.7147 20.4218 30.5975 20.7111 30.3887 20.9284C30.1798 21.1457 29.8954 21.2743 29.5943 21.2876C29.4391 21.3033 29.2823 21.2856 29.1345 21.2359C28.9866 21.1861 28.8511 21.1054 28.7369 20.9991C28.6227 20.8928 28.5325 20.7633 28.4724 20.6194C28.4122 20.4754 28.3835 20.3203 28.3881 20.1643C28.3774 20.0149 28.3974 19.8649 28.4469 19.7235C28.4964 19.5822 28.5743 19.4524 28.6759 19.3423C28.7775 19.2322 28.9005 19.1441 29.0375 19.0834C29.1744 19.0227 29.3224 18.9907 29.4721 18.9894C29.7867 18.9758 30.094 19.087 30.327 19.2988C30.5599 19.5107 30.6998 19.806 30.716 20.1205Z" fill="#F36633"/>
</svg>
